public/illustrations/_calculus.svg

<svg width="277" height="252" viewBox="0 0 277 252" fill="none" xmlns="http://www.w3.org/2000/svg">
<path d="M203.094 43.568C209.466 42.4353 215.129 41.4441 220.792 40.5945C227.447 39.6034 234.102 39.6036 240.331 42.8601C242.455 43.8512 244.437 45.4088 245.853 47.2494C247.411 49.09 248.402 51.2138 248.968 53.6207C250.526 59.8505 251.658 66.08 252.791 72.4514C257.463 97.6537 262.277 122.856 266.95 148.2C269.923 163.774 273.038 179.208 275.586 194.782C276.436 200.729 276.719 206.817 276.578 212.905C276.578 216.162 275.728 219.276 273.604 221.683C271.48 224.09 268.79 225.789 265.675 226.497C253.357 229.329 241.181 232.019 228.863 234.709C208.333 239.24 187.803 243.771 167.273 248.443C162.884 249.434 158.778 251.133 154.247 251.133C144.761 251.133 137.823 245.47 136.265 235.983C134 222.391 131.735 208.657 129.469 194.923C129.092 192.658 127.77 191.289 125.505 190.818C113.753 188.694 102.001 186.57 90.2498 184.446C77.2238 182.039 64.1978 179.774 51.1718 177.367C46.4995 176.517 44.659 173.686 45.6501 168.589C49.7561 148.2 53.862 127.812 58.1096 107.423C64.7641 74.8587 71.2771 42.2937 77.7901 9.58733C77.9317 8.59623 78.2149 7.60499 78.4981 6.61389C78.7812 5.19803 79.6307 3.78237 80.7634 2.93286C81.8961 1.94175 83.4536 1.51679 84.8694 1.65837H90.2498C110.355 2.3663 130.602 3.21596 150.707 3.92389C167.414 4.63182 184.122 5.33975 200.829 6.04768C206.634 6.33085 208.474 8.8794 207.625 14.5428C206.067 24.0291 204.652 33.2322 202.953 43.568H203.094ZM266.667 209.507C266.242 204.976 265.959 199.738 265.251 194.499C264.543 189.26 263.268 183.88 262.277 178.641C257.747 154.571 253.216 130.502 248.685 106.432C245.853 91.424 243.305 76.4161 240.473 61.408C239.765 57.5852 238.916 53.479 234.81 52.0632C231.695 50.9305 228.438 50.5059 225.04 50.789C209.324 52.9128 193.608 55.6027 177.892 58.0097C162.176 60.4167 146.743 62.682 131.027 65.089C122.815 66.3633 118.426 73.1594 119.983 81.3714C121.682 90.2913 123.239 99.3529 124.797 108.273L133.717 158.678C136.69 175.526 139.663 192.233 142.637 209.082C144.053 217.577 145.468 226.073 147.026 234.426C147.875 239.24 150.707 241.222 155.38 240.656C156.512 240.514 157.645 240.231 158.778 239.948C162.176 238.957 165.574 237.824 169.113 237.116C200.121 230.178 230.987 223.241 261.994 216.303C265.958 215.312 266.808 214.179 266.667 209.365V209.507ZM88.126 12.136L56.6937 167.739L127.062 180.482C123.947 162.5 120.832 145.085 117.717 127.812C107.523 126.254 97.7537 124.838 87.9843 123.422C86.4268 123.281 85.011 122.856 83.5951 122.29C82.604 121.865 81.8961 121.157 81.4713 120.166C81.0466 119.317 80.7635 118.184 81.0467 117.193C81.0467 116.202 81.4713 115.352 82.1793 114.503C82.8872 113.795 83.7368 113.228 84.7279 113.087C86.1438 112.804 87.5596 112.804 88.9755 112.945C94.7805 113.795 100.586 114.644 106.532 115.494C109.506 115.919 112.479 116.343 116.16 116.768C114.603 108.273 113.328 100.486 111.912 92.5569C109.222 92.2738 106.957 91.9904 104.55 91.7073C100.869 91.2825 97.1874 90.9993 93.5062 90.2914C92.2319 90.2914 90.9577 89.4418 90.2498 88.4507C89.4003 87.4596 88.9755 86.1856 89.117 84.7697C89.2586 83.4954 89.9666 82.2211 90.9577 81.5131C91.9488 80.6636 93.2231 80.2387 94.4974 80.2387C96.338 80.2387 98.037 80.3803 99.8776 80.6635L109.222 81.5131C109.505 81.0884 109.506 80.9468 109.506 80.8052C108.09 69.3367 115.594 56.4523 130.885 54.4701C132.726 54.3285 134.425 53.9039 136.265 53.6207C153.964 50.9306 171.804 48.0988 189.502 45.4087C191.767 45.1255 192.9 44.276 193.183 41.869C194.174 35.6392 195.165 29.4095 196.156 23.1797C196.581 20.9144 196.723 18.5073 197.006 15.9587L88.2676 11.7111L88.126 12.136Z" fill="#102185"/>
<path d="M41.6852 63.6737C40.9772 65.0895 40.1277 66.5055 39.4198 68.063C34.1811 78.5404 28.9423 88.8759 23.562 99.3533C20.7303 105.017 18.1819 105.866 12.3768 103.035C9.68668 101.76 6.9964 100.486 4.44785 99.0702C-0.0829191 96.6632 -0.932437 94.2563 0.908186 89.584C6.0053 77.1244 11.244 64.6648 16.4827 52.3468C17.8986 48.9487 19.3146 45.409 20.872 42.0109C21.2968 41.1614 21.5799 40.3122 21.5799 39.4627C21.5799 38.6131 21.5799 37.622 21.1551 36.914C20.4472 35.4982 20.3055 33.7991 20.7303 32.2416C21.0135 30.6842 21.8631 29.1269 22.9958 28.1358C30.6415 19.3574 38.995 11.0039 47.915 3.35821C48.7645 2.65028 49.7556 1.94214 50.7467 1.3758C56.9765 -2.02227 63.0648 1.09283 63.348 8.31372C63.348 12.1365 63.0647 15.9592 62.2152 19.782C58.5339 37.905 54.7111 56.0281 50.8883 74.0095C50.6051 75.1422 50.322 76.275 49.8972 77.2661C49.3309 78.5404 48.4813 79.3897 47.3486 79.9561C46.2159 80.5224 44.8001 80.6639 43.5258 80.2392C42.8179 80.0976 42.2515 79.8146 41.8267 79.3899C41.2604 78.9651 40.8356 78.5404 40.5524 77.974C40.2692 77.4077 39.9862 76.8412 39.9862 76.1333C39.9862 75.4254 39.9862 74.8592 40.1277 74.1513C40.6941 71.3195 41.5436 68.6293 42.11 65.9392C42.2516 65.2313 42.3931 64.5232 42.3931 63.6737H41.6852ZM31.0662 44.2765L11.5272 90.8581L15.2086 92.5574L37.7207 48.2409L31.0662 44.2765ZM47.3486 41.7278C49.0477 32.2416 50.7467 23.1803 52.4457 13.9772C44.9416 19.499 38.1455 26.0119 32.482 33.3744L47.3486 41.7278Z" fill="#102185"/>
<path d="M219.801 65.0898C222.349 65.5146 225.039 66.0808 227.446 66.7888C228.013 67.072 228.438 67.4968 228.862 67.9215C229.287 68.3463 229.429 68.9126 229.57 69.6205C231.694 80.381 233.818 91.0003 235.658 101.761C235.942 103.46 235.942 105.159 235.942 106.716C236.083 111.247 234.809 112.946 230.278 113.937C224.898 115.07 219.376 116.061 213.996 117.052C193.749 120.875 173.644 124.556 153.397 128.379C151.131 128.803 148.866 129.087 146.601 128.945C141.645 128.945 139.804 127.388 138.955 122.574C137.539 115.353 136.265 108.274 134.991 101.053C134.141 96.239 133.15 91.4248 132.3 86.6108C131.734 82.788 132.725 81.3724 135.982 79.3901C140.654 76.5584 146.034 76.4169 151.131 75.5674C171.661 72.3109 192.191 69.0544 212.722 65.9395C214.987 65.6563 217.252 65.5145 219.659 65.3729V64.8067L219.801 65.0898ZM220.084 75.5674L143.061 87.4605C145.043 97.9379 146.884 108.132 148.866 118.609L225.606 104.168C223.765 94.5399 221.925 85.1952 220.084 75.5674Z" fill="#102185"/>
<path d="M188.793 187.704C188.793 183.456 190.492 179.209 193.466 176.094C196.439 172.979 200.687 171.28 204.934 171.138C211.73 170.855 220.65 178.925 220.509 186.571C220.226 195.491 213.146 203.136 204.226 203.278C202.103 203.278 200.12 202.995 198.138 202.145C196.297 201.296 194.457 200.163 193.041 198.747C191.625 197.332 190.492 195.491 189.643 193.65C188.935 191.81 188.51 189.686 188.652 187.562L188.793 187.704ZM205.217 181.615C203.518 181.615 202.103 182.465 200.97 183.597C199.837 184.73 199.129 186.288 198.988 187.845C198.988 189.261 199.554 190.535 200.545 191.526C201.536 192.517 202.811 193.084 204.226 193.084C205.784 193.084 207.2 192.376 208.332 191.243C209.465 190.111 210.031 188.553 210.031 187.137C210.031 183.881 208.474 181.899 205.359 181.757L205.217 181.615Z" fill="#102185"/>
<path d="M196.156 165.474C191.908 165.474 187.944 163.634 184.97 160.519C181.997 157.546 180.44 153.44 180.581 149.192C180.723 140.555 187.944 133.193 196.439 133.759C205.217 134.184 212.014 140.414 212.014 150.041C212.014 152.165 211.589 154.147 210.881 156.13C210.031 157.97 208.899 159.811 207.483 161.227C205.925 162.643 204.226 163.775 202.244 164.483C200.404 165.191 198.28 165.616 196.156 165.474ZM196.297 144.237C195.589 144.237 194.882 144.237 194.315 144.52C193.607 144.803 193.041 145.228 192.616 145.652C192.191 146.219 191.767 146.785 191.484 147.351C191.2 148.059 191.2 148.767 191.2 149.475C191.2 150.891 191.767 152.307 192.616 153.298C193.607 154.289 194.882 154.997 196.297 155.139C197.005 155.139 197.713 154.997 198.28 154.714C198.988 154.431 199.554 154.006 199.979 153.581C200.404 153.015 200.828 152.448 201.111 151.882C201.395 151.174 201.395 150.608 201.395 149.9C201.395 149.192 201.395 148.484 201.111 147.776C200.828 147.068 200.545 146.502 199.979 145.936C199.554 145.369 198.846 144.944 198.28 144.661C197.572 144.378 197.005 144.237 196.297 144.237Z" fill="#102185"/>
<path d="M157.929 169.297C155.946 169.297 153.964 168.872 152.124 168.164C150.283 167.456 148.584 166.182 147.31 164.766C145.894 163.35 144.903 161.509 144.195 159.669C143.487 157.828 143.204 155.704 143.345 153.722C143.628 145.652 150.849 138.572 158.495 138.714C167.132 138.997 174.069 145.51 173.786 153.297C173.503 162.359 166.282 169.58 157.929 169.297ZM159.344 149.05C158.636 149.05 157.928 149.05 157.362 149.475C156.654 149.758 156.088 150.041 155.663 150.607C155.097 151.032 154.672 151.74 154.53 152.306C154.247 153.014 154.106 153.581 154.106 154.288C154.106 154.855 154.106 155.421 154.389 155.987C154.53 156.554 154.814 156.979 155.238 157.403C155.663 157.828 156.088 158.111 156.654 158.395C157.221 158.678 157.787 158.678 158.353 158.678C159.769 158.678 161.043 158.111 162.035 157.12C163.026 156.129 163.592 154.996 163.734 153.581C163.734 152.448 163.45 151.315 162.601 150.466C161.893 149.616 160.76 149.05 159.628 148.908L159.344 149.05Z" fill="#102185"/>
<path d="M166.565 178.358C168.547 178.358 170.529 178.642 172.228 179.491C174.069 180.199 175.768 181.332 177.042 182.748C178.316 184.164 179.591 185.721 180.299 187.561C181.007 189.402 181.431 191.384 181.431 193.225C181.29 197.331 179.591 201.154 176.617 203.986C173.644 206.817 169.821 208.516 165.715 208.516C161.892 208.516 158.211 207.101 155.521 204.41C152.831 201.72 151.132 198.181 151.132 194.358C151.132 190.252 152.689 186.146 155.663 183.173C158.494 180.199 162.459 178.5 166.565 178.358ZM165.715 198.039C167.131 198.039 168.405 197.614 169.396 196.623C170.387 195.632 170.954 194.358 170.954 193.084C170.954 192.517 170.954 191.951 170.671 191.526C170.529 190.96 170.246 190.535 169.821 190.252C169.396 189.827 168.972 189.544 168.405 189.402C167.839 189.261 167.273 189.119 166.848 189.119C166.14 189.119 165.574 189.119 164.866 189.402C164.299 189.685 163.733 189.969 163.167 190.535C162.742 190.96 162.317 191.526 162.034 192.234C161.751 192.8 161.609 193.508 161.609 194.216C161.609 194.782 161.609 195.349 161.892 195.774C162.034 196.34 162.317 196.765 162.742 197.189C163.167 197.614 163.591 197.897 164.158 198.039C164.724 198.181 165.29 198.322 165.715 198.18V198.039Z" fill="#102185"/>
<path d="M240.614 195.208C236.65 195.208 232.685 193.65 229.854 190.819C227.022 187.987 225.323 184.164 225.323 180.058C225.323 175.952 227.022 172.271 229.854 169.581C232.685 166.89 236.508 165.333 240.473 165.333C248.543 165.333 255.764 172.554 255.764 180.341C255.764 184.306 254.065 188.128 251.233 190.819C248.401 193.65 244.579 195.208 240.614 195.208ZM240.473 184.589C241.605 184.589 242.738 184.306 243.587 183.456C244.437 182.748 245.003 181.615 245.145 180.483C245.145 179.916 245.145 179.208 244.862 178.784C244.579 178.217 244.295 177.651 243.871 177.226C243.446 176.801 242.879 176.377 242.313 176.235C241.747 175.952 241.181 175.81 240.614 175.81C237.782 175.81 235.8 177.368 235.8 180.058C235.8 182.748 235.8 181.191 236.083 181.757C236.367 182.323 236.65 182.748 237.074 183.173C237.499 183.598 238.066 183.881 238.632 184.164C239.198 184.306 239.765 184.447 240.331 184.447L240.473 184.589Z" fill="#102185"/>
<path d="M233.393 127.387C239.764 126.821 248.118 133.901 247.976 141.688C247.976 145.794 246.136 149.758 243.021 152.59C239.906 155.422 235.942 156.979 231.836 156.837C223.34 156.837 217.252 150.749 217.252 142.396C217.252 134.042 224.332 127.246 233.393 127.387ZM231.977 146.643C233.393 146.643 234.667 146.077 235.8 145.086C236.791 144.095 237.499 142.821 237.499 141.405C237.499 140.272 236.933 139.281 236.083 138.573C235.234 137.865 234.242 137.44 233.11 137.44C230.42 137.44 227.446 140.13 227.446 142.679C227.588 143.812 228.154 144.803 229.004 145.511C229.853 146.218 230.986 146.643 231.977 146.502V146.643Z" fill="#102185"/>
<path d="M144.902 41.3032C132.301 40.5953 119.841 39.8873 107.24 39.1794C105.966 39.1794 104.691 38.8962 103.417 38.4715C102.426 38.1883 101.718 37.622 101.152 36.7725C100.585 35.923 100.302 35.0736 100.302 34.0825C100.302 33.0914 100.302 32.1003 101.01 31.2508C101.576 30.4013 102.284 29.835 103.275 29.5518C104.974 28.9855 106.673 28.7023 108.514 28.8439C117.151 29.2686 125.646 29.9764 134.283 30.4011C142.212 30.6843 150.141 30.4013 158.211 30.5428C159.769 30.5428 161.326 30.6843 162.742 31.1091C163.733 31.3922 164.441 31.9587 165.149 32.6666C165.715 33.3746 166.14 34.3655 166.14 35.3566C166.14 36.3477 166.14 37.4806 165.432 38.3301C164.866 39.1796 164.016 39.8876 163.025 40.1708C161.892 40.5955 160.618 40.8787 159.344 40.8787H145.043V41.3032H144.902Z" fill="#102185"/>
<path d="M211.024 92.2744C212.298 92.2744 213.572 92.6993 214.563 93.5489C215.554 94.3984 216.262 95.531 216.404 96.6637C216.404 97.938 216.121 99.2124 215.413 100.345C214.705 101.478 213.572 102.044 212.298 102.327C208.758 103.318 205.077 103.885 201.396 104.734L161.468 112.946C160.902 112.946 160.477 113.229 159.911 113.229C158.637 113.512 157.221 113.229 156.088 112.38C154.955 111.53 154.106 110.539 153.681 109.123C153.398 107.849 153.681 106.575 154.389 105.442C155.097 104.309 156.23 103.602 157.504 103.177C159.911 102.469 162.459 101.902 165.008 101.477L207.484 92.5578C208.617 92.4162 209.749 92.2746 211.165 92.133L211.024 92.2744Z" fill="#102185"/>
</svg>

<svg xmlns="http://www.w3.org/2000/svg" width="277" height="252" fill="none" viewBox="0 0 277 252"><path fill="#102185" d="M203.094 43.568c6.372-1.133 12.035-2.124 17.698-2.974 6.655-.99 13.31-.99 19.539 2.266 2.124.991 4.106 2.549 5.522 4.39 1.558 1.84 2.549 3.964 3.115 6.37 1.558 6.23 2.69 12.46 3.823 18.831 4.672 25.203 9.486 50.405 14.159 75.749 2.973 15.574 6.088 31.008 8.636 46.582.85 5.947 1.133 12.035.992 18.123 0 3.257-.85 6.371-2.974 8.778s-4.814 4.106-7.929 4.814c-12.318 2.832-24.494 5.522-36.812 8.212-20.53 4.531-41.06 9.062-61.59 13.734-4.389.991-8.495 2.69-13.026 2.69-9.486 0-16.424-5.663-17.982-15.15-2.265-13.592-4.53-27.326-6.796-41.06q-.566-3.398-3.964-4.105l-35.255-6.372c-13.026-2.407-26.052-4.672-39.078-7.079-4.672-.85-6.513-3.681-5.522-8.778 4.106-20.389 8.212-40.777 12.46-61.166 6.654-32.564 13.167-65.13 19.68-97.836.142-.99.425-1.982.708-2.973.283-1.416 1.133-2.832 2.265-3.681 1.133-.991 2.69-1.416 4.106-1.275h5.38c20.106.708 40.353 1.558 60.458 2.266l50.122 2.124c5.805.283 7.645 2.831 6.796 8.495-1.558 9.486-2.973 18.69-4.672 29.025zm63.573 165.939c-.425-4.531-.708-9.769-1.416-15.008s-1.983-10.619-2.974-15.858l-13.592-72.209c-2.832-15.008-5.38-30.016-8.212-45.024-.708-3.823-1.557-7.929-5.663-9.345q-4.673-1.699-9.77-1.274c-15.716 2.124-31.432 4.814-47.148 7.22-15.716 2.408-31.149 4.673-46.865 7.08-8.212 1.274-12.601 8.07-11.044 16.282 1.699 8.92 3.256 17.982 4.814 26.902l8.92 50.405c2.973 16.848 5.946 33.555 8.92 50.404 1.416 8.495 2.831 16.991 4.389 25.344.849 4.814 3.681 6.796 8.354 6.23 1.132-.142 2.265-.425 3.398-.708 3.398-.991 6.796-2.124 10.335-2.832 31.008-6.938 61.874-13.875 92.881-20.813 3.964-.991 4.814-2.124 4.673-6.938zM88.126 12.136 56.694 167.739l70.368 12.743c-3.115-17.982-6.23-35.397-9.345-52.67-10.194-1.558-19.963-2.974-29.733-4.39-1.557-.141-2.973-.566-4.389-1.132a3.9 3.9 0 0 1-2.124-2.124c-.424-.849-.708-1.982-.424-2.973 0-.991.424-1.841 1.132-2.69.708-.708 1.558-1.275 2.549-1.416 1.416-.283 2.832-.283 4.248-.142 5.805.85 11.61 1.699 17.556 2.549 2.974.425 5.947.849 9.628 1.274-1.557-8.495-2.832-16.282-4.248-24.211-2.69-.283-4.955-.567-7.362-.85-3.681-.424-7.363-.708-11.044-1.416-1.274 0-2.548-.85-3.256-1.84-.85-.991-1.275-2.265-1.133-3.681.142-1.275.85-2.549 1.84-3.257.992-.85 2.266-1.274 3.54-1.274 1.841 0 3.54.141 5.38.424l9.345.85c.283-.425.284-.566.284-.708-1.416-11.468 6.088-24.353 21.379-26.335 1.841-.142 3.54-.566 5.38-.85 17.699-2.69 35.539-5.521 53.237-8.211 2.265-.283 3.398-1.133 3.681-3.54l2.973-18.69c.425-2.265.567-4.672.85-7.22L88.268 11.71zM41.685 63.674c-.708 1.416-1.557 2.831-2.265 4.389a3248 3248 0 0 1-15.858 31.29c-2.832 5.664-5.38 6.513-11.185 3.682-2.69-1.275-5.38-2.549-7.93-3.965-4.53-2.407-5.38-4.814-3.539-9.486 5.097-12.46 10.336-24.92 15.575-37.237 1.416-3.398 2.832-6.938 4.389-10.336.425-.85.708-1.699.708-2.548 0-.85 0-1.841-.425-2.549-.708-1.416-.85-3.115-.425-4.672.284-1.558 1.133-3.115 2.266-4.106 7.646-8.779 15.999-17.132 24.919-24.778.85-.708 1.84-1.416 2.832-1.982 6.23-3.398 12.318-.283 12.601 6.938 0 3.823-.283 7.645-1.133 11.468-3.681 18.123-7.504 36.246-11.327 54.228-.283 1.132-.566 2.265-.99 3.256-.567 1.274-1.417 2.124-2.55 2.69s-2.548.708-3.822.283q-1.062-.211-1.7-.85c-.566-.424-.99-.849-1.274-1.415-.283-.566-.566-1.133-.566-1.84 0-.709 0-1.275.142-1.983.566-2.831 1.416-5.522 1.982-8.212.142-.708.283-1.416.283-2.265zM31.066 44.277 11.527 90.858l3.682 1.7L37.72 48.24zm16.283-2.55c1.699-9.485 3.398-18.547 5.097-27.75-7.504 5.522-14.3 12.035-19.964 19.397z"/><path fill="#102185" d="M219.801 65.09c2.548.425 5.238.99 7.645 1.699.567.283.992.708 1.416 1.132.425.425.567.992.708 1.7 2.124 10.76 4.248 21.38 6.088 32.14.284 1.699.284 3.398.284 4.955.141 4.531-1.133 6.23-5.664 7.221-5.38 1.133-10.902 2.124-16.282 3.115-20.247 3.823-40.352 7.504-60.599 11.327-2.266.424-4.531.708-6.796.566-4.956 0-6.797-1.557-7.646-6.371-1.416-7.221-2.69-14.3-3.964-21.521-.85-4.814-1.841-9.628-2.691-14.442-.566-3.823.425-5.239 3.682-7.22 4.672-2.833 10.052-2.974 15.149-3.824 20.53-3.256 41.06-6.513 61.591-9.627 2.265-.284 4.53-.425 6.937-.567v-.566zm.283 10.477-77.023 11.894c1.982 10.477 3.823 20.671 5.805 31.148l76.74-14.441c-1.841-9.628-3.681-18.973-5.522-28.6M188.793 187.704c0-4.248 1.699-8.495 4.673-11.61 2.973-3.115 7.221-4.814 11.468-4.956 6.796-.283 15.716 7.787 15.575 15.433-.283 8.92-7.363 16.565-16.283 16.707-2.123 0-4.106-.283-6.088-1.133-1.841-.849-3.681-1.982-5.097-3.398-1.416-1.415-2.549-3.256-3.398-5.097-.708-1.84-1.133-3.964-.991-6.088zm16.424-6.089c-1.699 0-3.114.85-4.247 1.982a7 7 0 0 0-1.982 4.248c0 1.416.566 2.69 1.557 3.681s2.266 1.558 3.681 1.558c1.558 0 2.974-.708 4.106-1.841a5.9 5.9 0 0 0 1.699-4.106c0-3.256-1.557-5.238-4.672-5.38zM196.156 165.474c-4.248 0-8.212-1.84-11.186-4.955-2.973-2.973-4.53-7.079-4.389-11.327.142-8.637 7.363-15.999 15.858-15.433 8.778.425 15.575 6.655 15.575 16.282 0 2.124-.425 4.106-1.133 6.089-.85 1.84-1.982 3.681-3.398 5.097-1.558 1.416-3.257 2.548-5.239 3.256-1.84.708-3.964 1.133-6.088.991m.141-21.237c-.708 0-1.415 0-1.982.283a5.1 5.1 0 0 0-1.699 1.132c-.425.567-.849 1.133-1.132 1.699-.284.708-.284 1.416-.284 2.124 0 1.416.567 2.832 1.416 3.823.991.991 2.266 1.699 3.681 1.841.708 0 1.416-.142 1.983-.425a5.1 5.1 0 0 0 1.699-1.133c.425-.566.849-1.133 1.132-1.699.284-.708.284-1.274.284-1.982s0-1.416-.284-2.124c-.283-.708-.566-1.274-1.132-1.84-.425-.567-1.133-.992-1.699-1.275-.708-.283-1.275-.424-1.983-.424M157.929 169.297c-1.983 0-3.965-.425-5.805-1.133-1.841-.708-3.54-1.982-4.814-3.398-1.416-1.416-2.407-3.257-3.115-5.097s-.991-3.965-.85-5.947c.283-8.07 7.504-15.15 15.15-15.008 8.637.283 15.574 6.796 15.291 14.583-.283 9.062-7.504 16.283-15.857 16m1.415-20.247c-.708 0-1.416 0-1.982.425-.708.283-1.274.566-1.699 1.132-.566.425-.991 1.133-1.133 1.699-.283.708-.424 1.275-.424 1.982 0 .567 0 1.133.283 1.699.141.567.425.992.849 1.416.425.425.85.708 1.416.992.567.283 1.133.283 1.699.283 1.416 0 2.69-.567 3.682-1.558.991-.991 1.557-2.124 1.699-3.539 0-1.133-.284-2.266-1.133-3.115-.708-.85-1.841-1.416-2.973-1.558zM166.565 178.358c1.982 0 3.964.284 5.663 1.133 1.841.708 3.54 1.841 4.814 3.257s2.549 2.973 3.257 4.813c.708 1.841 1.132 3.823 1.132 5.664-.141 4.106-1.84 7.929-4.814 10.761-2.973 2.831-6.796 4.53-10.902 4.53-3.823 0-7.504-1.415-10.194-4.106s-4.389-6.229-4.389-10.052c0-4.106 1.557-8.212 4.531-11.185 2.831-2.974 6.796-4.673 10.902-4.815m-.85 19.681c1.416 0 2.69-.425 3.681-1.416s1.558-2.265 1.558-3.539c0-.567 0-1.133-.283-1.558q-.213-.85-.85-1.274c-.425-.425-.849-.708-1.416-.85-.566-.141-1.132-.283-1.557-.283-.708 0-1.274 0-1.982.283-.567.283-1.133.567-1.699 1.133-.425.425-.85.991-1.133 1.699-.283.566-.425 1.274-.425 1.982 0 .566 0 1.133.283 1.558.142.566.425.991.85 1.415s.849.708 1.416.85c.566.142 1.132.283 1.557.141zM240.614 195.208c-3.964 0-7.929-1.558-10.76-4.389-2.832-2.832-4.531-6.655-4.531-10.761s1.699-7.787 4.531-10.477a15.48 15.48 0 0 1 10.619-4.248c8.07 0 15.291 7.221 15.291 15.008 0 3.965-1.699 7.787-4.531 10.478a15 15 0 0 1-10.619 4.389m-.141-10.619c1.132 0 2.265-.283 3.114-1.133.85-.708 1.416-1.841 1.558-2.973 0-.567 0-1.275-.283-1.699-.283-.567-.567-1.133-.991-1.558s-.992-.849-1.558-.991q-.849-.425-1.699-.425c-2.832 0-4.814 1.558-4.814 4.248s0 1.133.283 1.699c.284.566.567.991.991 1.416s.992.708 1.558.991c.566.142 1.133.283 1.699.283zM233.393 127.387c6.371-.566 14.725 6.514 14.583 14.301 0 4.106-1.84 8.07-4.955 10.902s-7.079 4.389-11.185 4.247c-8.496 0-14.584-6.088-14.584-14.441s7.08-15.15 16.141-15.009m-1.416 19.256c1.416 0 2.69-.566 3.823-1.557.991-.991 1.699-2.265 1.699-3.681 0-1.133-.566-2.124-1.416-2.832-.849-.708-1.841-1.133-2.973-1.133-2.69 0-5.664 2.69-5.664 5.239a4.38 4.38 0 0 0 1.558 2.832c.849.707 1.982 1.132 2.973.991zM144.902 41.303c-12.601-.708-25.061-1.416-37.662-2.124-1.274 0-2.549-.283-3.823-.708-.991-.283-1.699-.849-2.265-1.698-.567-.85-.85-1.7-.85-2.69 0-.992 0-1.983.708-2.832.566-.85 1.274-1.416 2.265-1.7 1.699-.566 3.398-.849 5.239-.707 8.637.425 17.132 1.132 25.769 1.557 7.929.283 15.858 0 23.928.142 1.558 0 3.115.141 4.531.566.991.283 1.699.85 2.407 1.558.566.708.991 1.698.991 2.69 0 .99 0 2.124-.708 2.973-.566.85-1.416 1.558-2.407 1.84-1.133.425-2.407.709-3.681.709h-14.301v.424z"/><path fill="#102185" d="M211.024 92.274c1.274 0 2.548.425 3.539 1.275s1.699 1.982 1.841 3.115c0 1.274-.283 2.548-.991 3.681s-1.841 1.699-3.115 1.982c-3.54.991-7.221 1.558-10.902 2.407l-39.928 8.212c-.566 0-.991.283-1.557.283-1.274.283-2.69 0-3.823-.849-1.133-.85-1.982-1.841-2.407-3.257-.283-1.274 0-2.548.708-3.681s1.841-1.84 3.115-2.265a64 64 0 0 1 7.504-1.7l42.476-8.92c1.133-.14 2.265-.282 3.681-.424z"/></svg>
